X:1
T:WAULKING SONG
M:6/8
L:1/4
K:G
 G G/2 G G/2| A B/2E/4-D/4 D| E/4 G/4- G A B/2| d e/2 G3/2| e e/2 d B/2|\
 BA/4-G/4E/4-D/4 D| E/4 G/4- G A B/2| d e/2 G3/2|||

